pro/src/icons/stroke-link.svg

<svg width="48" height="48" viewBox="0 0 48 48" fill="none" xmlns="http://www.w3.org/2000/svg">
<path id="icon" fill-rule="evenodd" clip-rule="evenodd" d="M37 44C40.866 44 44 40.866 44 37L44 11C44 7.13401 40.866 4 37 4L11 4C7.13401 4 4 7.13401 4 11L4 24C4 24.5523 4.44772 25 5 25C5.55229 25 6 24.5523 6 24L6 11C6 8.23858 8.23858 6 11 6L37 6C39.7614 6 42 8.23857 42 11L42 37C42 39.7614 39.7614 42 37 42L11 42C9.6292 42 8.38889 41.4497 7.48465 40.5556C6.56684 39.6481 6 38.3912 6 37C6 36.4477 5.55229 36 5 36C4.44772 36 4 36.4477 4 37C4 38.9471 4.79627 40.71 6.07845 41.9778C7.34185 43.227 9.08163 44 11 44L37 44ZM24.7191 14C24.1447 14 23.679 14.4632 23.679 15.0345C23.679 15.6059 24.1447 16.069 24.7191 16.069H30.5562L14.3046 32.234C13.8984 32.638 13.8984 33.293 14.3046 33.697C14.7107 34.101 15.3693 34.101 15.7754 33.697L31.9198 17.6387V22.8511C31.9198 23.4224 32.3855 23.8856 32.9599 23.8856C33.5343 23.8856 33.9999 23.4224 33.9999 22.8511V16.069C33.9999 14.9263 33.0687 14 31.9198 14H24.7191Z" fill="currentColor"/>
</svg>

<svg xmlns="http://www.w3.org/2000/svg" width="48" height="48" fill="none"><path id="icon" fill="currentColor" fill-rule="evenodd" d="M37 44a7 7 0 0 0 7-7V11a7 7 0 0 0-7-7H11a7 7 0 0 0-7 7v13a1 1 0 1 0 2 0V11a5 5 0 0 1 5-5h26a5 5 0 0 1 5 5v26a5 5 0 0 1-5 5H11a4.98 4.98 0 0 1-3.515-1.444A4.98 4.98 0 0 1 6 37a1 1 0 1 0-2 0c0 1.947.796 3.71 2.078 4.978A6.98 6.98 0 0 0 11 44zM24.72 14c-.575 0-1.041.463-1.041 1.034 0 .572.466 1.035 1.04 1.035h5.837L14.305 32.234a1.03 1.03 0 0 0 0 1.463 1.044 1.044 0 0 0 1.47 0L31.92 17.639v5.212c0 .571.465 1.035 1.04 1.035.574 0 1.04-.464 1.04-1.035V16.07A2.074 2.074 0 0 0 31.92 14z" clip-rule="evenodd"/></svg>
